!!!OTL: Es reisen drei Knaben (Band 1), S. 93
!!!id: P0804
**kern
*clefG2
*k[b-]
*F:
{4c
=1
4f
4g
4a
=2
4.g
8a
4g
=3
4f
4e
4f
=4
4c}
4r
=5
{4f
=6
4g
4a
4b-
=7
2cc
4cc
=8
2b-
4a
=9
4g}
4r
=10
{4f
=11
4g
4g
4cc
=12
4b-
4a
4g
=13
4f
4e
4d
=14
4c}
4r
=15
{4c
=16
8f
8f
8f
8f
4f
=17
2f
4g
=18
4a
4f
8cc
8b-
=19
2a
4g
=20
4f}
4r
==
*-
!!!minrhy: 8
!!!meters: 3/4 ]  ZZ[4
!!!cut: Es reisen drei Knaben (Band 1), S. 93
!!!reg: Lothringen
!!!trd: PINCK, Louis: Verklingende Weisen, Bd 1, Metz 1928
!!!rhy1: X_  X_X_X_  X_.XX_  X_X_X_  X_0_
!!!rhy2: X_  X_X_X_  X__X_  X__X_  X_0_
!!!key: P0804  08  F 3/4 ]  ZZ[4
!!!mod: HEPTATONIK IONISCH]  AMBITUS[8
!!!kad: -52-51
!!!akz: 121-5_2542_241-5_11331_
!!!fot: 'a__b__c__d__
!!!for: 'a__b__c__d__
!!!fok: '^__^a_^d_^a_
!! PHRAS[AUFTAKTIG]
!!!fkt: Gefangenschaft, Berfreiung, Liebe
!! LOTH VKL
!! PR[14] 2K[4] 2G[16] 3K[4] 3G[4] 4A[10] 4Ü[0] 5A[0] 6K[0] 6G[0]
!! 7K[0] 7G[0] 8A[0] MEHR[0] SI[38] ABS[50] SR[20] SP[18]
!! ST[11] 2k[8] 2g[32] 3k[4] 3g[0] 4d[4] 4ü[0] 5d[0] 6k[0] 6g[0]
!! 7k[0] 7g[0] 8d[0] mehr[0] si[48] dm[-10] sr[40] sp[8]
!! 1F[8] 2F[67] 3F[18] 4F[0] LF[0] 2P[0] 3P[8] 4P[0] TRI[0] DF[4] AB[51]
!! TF[0] U3K[0] U3[0] U4[0] U4Ü[0] U5[8] U6K[0] U6[0] U7K[8] U7[2]
!! N1[22] N2K[0] N2[10] N3K[18] N3[0] N4[20] N4Ü[0] N5[14] N6K[0] N6[0]
!!!n7k: 0] N7[0] O1[0] O2K[0] O2[0] O3K[0] O3[0] HÖ[0
